!!!OTL@@DE: Abschied
!!!COM: M&uuml;ller, Wenzel
!!!ODT: 1828
!!!OMD: Innig
!!!ONB: Aus: "Der Alpenk&ouml;nig und der Menschenfeind."
!!!LYR: Raimund, Ferd.
!!!LDT: 1828
!!!ONB: etwas ge&auml;ndert
!!!OCL: Erk, Ludwig
!!!GCO: Deutscher Liederschatz, Band 1
**kern	**kern	**kern
*staff3	*staff2	*staff1
*Ipiano	*Ipiano	*Ivox
*clefF4	*clefG2	*clefG2
*k[b-e-a-]	*k[b-e-a-]	*k[b-e-a-]
*E-:	*E-:	*E-:
*M3/4	*M3/4	*M3/4
*MM96	*MM96	*MM96
8r	(8g/ 8b-/L	8b-\
4r	8f#/ 8an/	8an/
.	8g/) 8b-/J	8b-\
=1	=1	=1
8r	4.a-/ 4.cc/	4.cc\
(8BBB-/L	.	.
8BB-/	.	.
8D/	(8fn/L	8f/
8F/	8d/ 8a-/	8a-/
8A-/J)	8B-/) 8d/J	8d/
=2	=2	=2
8r	4G/ 4B-/ 4e-/	4e-/
(8E-/L	.	.
8EE-/J)	8r	8r
8r	(8g/ 8b-/L	8b-\
4r	8f#/ 8an/	8an/
.	8g/) 8b-/J	8b-\
=3	=3	=3
8r	4.b-\ 4.dd\	4.dd\
(8BBB-/L	.	.
8BB-/	.	.
8D/	(8a-/ 8cc/L	8cc\
8F/	8g/ 8b-/	8b-\
8B-/J)	8f/) 8a-/J	8a-/
=4	=4	=4
8r	4e-/ 4g/	4g/
(8E-/L	.	.
8EE-/J)	8r	8r
8r	(8g/ 8b-/L	8b-\
4r	8f#/ 8an/	8an/
.	8g/) 8b-/J	8b-\
=5	=5	=5
8r	4.f/ 4.a-/ 4.dd/	4.dd\
(8BBB-/L	.	.
8BB-/J)	.	.
8r	8d/ 8a-/ 8b-/L	8b-\
4r	8e-/ 8a-/ 8cc/	8cc\
.	8f/ 8a-/ 8dd/J	8dd\
=6	=6	=6
8r	4.e-/ 4.g/ 4.ee-/	4.ee-\
(8CC/L	.	.
8C/J)	.	.
(8C\L	(8e-/ 8g/L	8g/
8.c\	8d/ 8f/	8f/
.	8e-/) 8g/J	8g/
16B-\Jk)	.	.
=7	=7	=7
(8A-\L	4.c/ 4.e-/ 4.cc/	4.cc\
8AA-\	.	.
8A-\	.	.
8G\J)	8e-/ 8b-/L	8b-\
*^	*^	*
8F/L	4BB-\	8a-/	4B-\ 4d\	8a-/
8A-/J	.	8f/J	.	8f/
*v	*v	*	*	*
*	*v	*v	*
=8	=8	=8
4E-\ 4G\	4B-/ 4e-/	4e-/
8EE-/	8r	8r
==	==	==
*-	*-	*-
!!!ENC: Craig Stuart Sapp
!!!END: 2004/06/08/
!!!EFL: 095/651
